X: 0
T: The Pigtown Fling
C: Trad
R: reel
M: 4/4
L: 1/8
K: Gmaj
|:"G"G2ge d2ed|B2ge dBAB|G2ge d2ed|BGAG EGG2:|
|:"Em"Beed efge|"D"fgaf "G"gfed|"Em"Beed efge|"D"fgaf "G"g4:|